X: 32552
T: Planxty Geordie
R: jig
M: 6/8
K: Gmajor
GAA GED|FAc dBG|ecA dBG|AcA BGE|
GAA GED|FAc dBG|ecA fdc|BGG G3:|
gag edB|efg bge|gag edB|ega g2f|
gag edB|efg dBG|ecA fdc|BGG G3:|

